X:1
T:Title
%%score { ( 1 3 ) | ( 2 4 ) }
L:1/8
M:4/4
K:Eb
V:1 treble nm="Grand Piano"
V:3 treble 
V:2 bass 
V:4 bass 
V:1
 z4 z2[Q:1/4=100] [EG]>[FA] | [GB]2 [_G=A]>[Gc] [=GB]2 E>_G | G>G _G>A =G2 [FA]>[EG] | %3
 [DF]>[_D=E] [=DF]>[EG] [FA]>[EG] [FA]>[Ac] | [GB]4 G2 [B,EG]>[B,FA] | %5
 [B,GB]2 [C_G=A]>[Gc] [=GB]2 E>_G | G>G _G>A =G2 [FA]>[EG] | %7
 [DF]>[_D=E] [=DF]>[EG] [FA]>[GB] [Ac]>[Ad] |[M:3/4] [Ge]6 |[M:1/4] [GB]>[Ge] | %10
[M:4/4] [FAd]2 [EAc]2 [DAB]2 [DFA]>[DAc] | [EGB]2 [DFA]2 [EG]2 [B,GB]>[Ge] | d2 c2 F2 c2 | B6 z2 | %14
 [B,GB]2 [C_G=A]>[Gc] [=GB]2 E>_G | G>G _G>A =G2 [FA]>[EG] | %16
 [DF]>[_D=E] [=DF]>[EG] [FA]>[GB] [Ac]>[Ad] |[M:3/4] [Ge]6 |[M:1/4] B>e | %19
[M:4/4] [Beg]2 [Adf]2 [Gce]2 c>d | [Gce]2 [F=Bd]2 [EAc]2 e>c | [GB]2 [GBe]2 [Beg]2 [df]2 | %22
[M:3/4] [GBe]6 |] %23
V:2
 z4 z2 [E,B,]>[E,B,] | [E,B,]2 [E,C]>[E,=A,] [E,B,]2 [E,G,]>[E,A,E] | %2
 [E,B,E]>[E,B,E] [E,=A,E]>[E,CE] [E,B,E]2 [E,B,]>[E,B,] | %3
 [B,,B,]>[B,,B,] [B,,B,]>[B,,B,] [B,,B,]>[B,,B,] [B,,B,]>[B,,B,] | z4 E2 E,>E, | %5
 E,2 E,>[E,=A,] [E,B,]2 [E,G,]>[E,A,E] | [E,B,E]>[E,B,E] [E,=A,E]>[E,CE] [E,B,E]2 [E,B,]>[E,B,] | %7
 [B,,B,]>[B,,B,] [B,,B,]>[B,,B,] [B,,B,]>[B,,B,] [B,,B,]>[B,,B,] |[M:3/4] [E,B,]6 | %9
[M:1/4] [E,E]>[E,E] |[M:4/4] B,2 B,2 B,2 B,,>B,, | E,2 B,,2 E,2 E,>[E,B,] | %12
 [F,B,F]2 [F,=A,E]2 [F,CE]2 [F,A,E]2 | [B,D]2 C2 D2 E,>E, | E,2 E,>[E,=A,] [E,B,]2 [E,G,]>[E,A,E] | %15
 [E,B,E]>[E,B,E] [E,=A,E]>[E,CE] [E,B,E]2 [B,,B,]>[B,,B,] | %16
 [B,,B,]>[B,,B,] [B,,B,]>[B,,B,] [B,,B,]>[B,,B,] [B,,B,]>[B,,B,] |[M:3/4] [E,B,]6 |[M:1/4] z2 | %19
[M:4/4] [E,,E,]2 [B,,B,]2 [C,C]2 z2 | [C,C]2 [G,,G,]2 [A,,A,]2[K:treble] c>A | %21
 [B,,B,]4 z2[K:treble] [AB]2 |[M:3/4][K:bass] [E,,E,]6 |] %23
V:3
 x8 | x8 | x8 | x8 | B,6 z2 | x8 | x8 | x8 |[M:3/4] x6 |[M:1/4] x2 |[M:4/4] x8 | x8 | x8 | %13
 z2 E2 F2 [B,EG]>[B,FA] | x8 | x8 | x8 |[M:3/4] x6 |[M:1/4] x2 |[M:4/4] x8 | x8 | x8 |[M:3/4] x6 |] %23
V:4
 x8 | x8 | x8 | x8 | E,6 z2 | x8 | x8 | x8 |[M:3/4] x6 |[M:1/4] x2 |[M:4/4] x8 | x8 | x8 | C,6 z2 | %14
 x8 | x8 | x8 |[M:3/4] x6 |[M:1/4] x2 |[M:4/4] x8 | x6[K:treble] x2 | z4 [B,,,B,,]4[K:treble] | %22
[M:3/4][K:bass] x6 |] %23

